!!!!SEGMENT: pl-wtm--r-2054_smietanski-emil-wladyslaw--etude-de-concert.krn
!!!cenid: 18xx:2035
!!!COM: Śmietański, Emil Władysław
!!!COM-rismid: pe50041781
!!!CDT: 1845-1886
!!!CNT: Polish
!!!OTL: Etude de concert
!!!PDT: 1873
!!!AGN: Secular; Etude
!!!SMS-siglum: PL-Wtm
!!!SMS-shelfmark: R 2054
!!!SMS-shelfwork: W
!!!SMS-variant:
!!!SMS-altvar:
!!!NIFC-rismid: 1001111547
!!!URL-scan: http://repozytorium.nifc.pl/skany/pl-wtm-nut--r2054
!!!ONB-nifc:
!!!OMD: Allegretto.
**kern	**fing	**kern	**fing	**dynam
*part1	*	*part1	*	*
*staff2	*	*staff1	*	*
*I"Fortepian	*	*I"Fortepian	*	*
*clefG2	*	*clefG2	*	*
*k[]	*	*k[]	*	*
*M6/8	*	*M6/8	*	*
=1	=1	=1	=1	=1
!	!	!LO:TX:t=P:problem:dynamika i palcowanie wpisane ołówkiem	!	!
!	!	!LO:TUP:b:problem:klamra łukowa	!	!
!	!	!LO:TX:a:t=md	!	!
8ryy	.	24gLL 24e 24c/	.	.
.	.	24g 24e 24c/	.	.
.	.	24gJJ 24e 24c/	.	.
!LO:TX:b:t=ms.	!	!	!	!
!LO:TUP:a:problem:klamra łukowa	!	!	!	!
24cc>LL 24g> 24e>\	.	8ryy	.	.
24cc> 24g> 24e>\	.	.	.	.
24cc>JJ 24g> 24e>\	.	.	.	.
!	!	!LO:TUP:b:problem:klamra łukowa	!	!
!	!	!LO:TX:a:t=md	!	!
8ryy	.	24gLL 24e 24c/	.	.
.	.	24g 24e 24c/	.	.
.	.	24gJJ 24e 24c/	.	.
!LO:TX:b:t=ms	!	!	!	!
24b>LL 24f> 24d>\	.	8ryy	.	.
24b> 24f> 24d>\	.	.	.	.
24b>JJ 24f> 24d>\	.	.	.	.
!	!	!LO:TX:a:t=md	!	!
8ryy	.	24aLL 24f 24c/	.	.
.	.	24a 24f 24c/	.	.
.	.	24aJJ 24f 24c/	.	.
!LO:TX:b:t=ms	!	!	!	!
24g>LL 24f> 24B>\	.	8ryy	.	.
24g> 24f> 24B>\	.	.	.	.
24g>JJ 24f> 24B>\	.	.	.	.
=2	=2	=2	=2	=2
*tremolo	*	*tremolo	*	*
*	*	*Xtuplet	*	*
8ryy	.	24gLL 24e 24c/	.	.
.	.	24g 24e 24c/	.	.
.	.	24gJJ 24e 24c/	.	.
24cc>LL 24g> 24e>\	.	8ryy	.	.
24cc> 24g> 24e>\	.	.	.	.
24cc>JJ 24g> 24e>\	.	.	.	.
8ryy	.	24eeLL 24cc 24g/	.	.
.	.	24ee 24cc 24g/	.	.
.	.	24eeJJ 24cc 24g/	.	.
24gg>LL 24cc> 24b>\	.	8ryy	.	.
24gg> 24cc> 24b>\	.	.	.	.
24gg>JJ 24cc> 24b>\	.	.	.	.
8ryy	.	24ffLL 24cc 24a/	.	.
.	.	24ff 24cc 24a/	.	.
.	.	24ffJJ 24cc 24a/	.	.
24ee>LL 24cc> 24g>\	.	8ryy	.	.
24ee> 24cc> 24g>\	.	.	.	.
24ee>JJ 24cc> 24g>\	.	.	.	.
=3	=3	=3	=3	=3
8ryy	.	24ddLL 24cc 24f#X/	.	.
.	.	24dd 24cc 24f#/	.	.
.	.	24ddJJ 24cc 24f#/	.	.
24ee->XLL 24cc> 24g>\	.	8ryy	.	.
24ee-> 24cc> 24g>\	.	.	.	.
24ee->JJ 24cc> 24g>\	.	.	.	.
8ryy	.	24ddLL 24cc 24f#/	.	.
.	.	24dd 24cc 24f#/	.	.
.	.	24ddJJ 24cc 24f#/	.	.
!LO:TX:t=P:problem:akord skreślony ołówkiem	!	!	!	!
24aa>LL 24ee-> 24cc>\	.	8ryy	.	.
24aa> 24ee-> 24cc>\	.	.	.	.
24aa>JJ 24ee-> 24cc>\	.	.	.	.
8ryy	.	24ee-yLL 24cc 24g/	.	.
.	.	24ee- 24cc 24g/	.	.
.	.	24ee-JJ 24cc 24g/	.	.
24dd>LL 24cc> 24f#y>\	.	8ryy	.	.
24dd> 24cc> 24f#>\	.	.	.	.
24dd>JJ 24cc> 24f#>\	.	.	.	.
=4	=4	=4	=4	=4
8ryy	.	24ddLL 24b 24fn/	.	.
.	.	24dd 24b 24f/	.	.
.	.	24ddJJ 24b 24f/	.	.
24ee>LL 24b> 24g>\	.	8ryy	.	.
24ee> 24b> 24g>\	.	.	.	.
24ee>JJ 24b> 24g>\	.	.	.	.
8ryy	.	24dd>LL 24b> 24f>/	.	.
.	.	24dd> 24b> 24f>/	.	.
.	.	24dd>JJ 24b> 24f>/	.	.
24ff>LL 24b> 24a>\	.	8ryy	.	.
24ff> 24b> 24a>\	.	.	.	.
24ff>JJ 24b> 24a>\	.	.	.	.
8ryy	.	24eeLL 24b 24g/	.	.
.	.	24ee 24b 24g/	.	.
.	.	24eeJJ 24b 24g/	.	.
24dd>LL 24b> 24f>\	.	8ryy	.	.
24dd> 24b> 24f>\	.	.	.	.
24dd>JJ 24b> 24f>\	.	.	.	.
=5	=5	=5	=5	=5
8ryy	.	24gLL 24e 24c/	.	.
.	.	24g 24e 24c/	.	.
.	.	24gJJ 24e 24c/	.	.
24cc>LL 24g> 24e>\	.	8ryy	.	.
24cc> 24g> 24e>\	.	.	.	.
24cc>JJ 24g> 24e>\	.	.	.	.
8ryy	.	24gLL 24e 24c/	.	.
.	.	24g 24e 24c/	.	.
.	.	24gJJ 24e 24c/	.	.
24b>LL 24f> 24d>\	.	8ryy	.	.
24b> 24f> 24d>\	.	.	.	.
24b>JJ 24f> 24d>\	.	.	.	.
8ryy	.	24aLL 24f 24c/	.	.
.	.	24a 24f 24c/	.	.
.	.	24aJJ 24f 24c/	.	.
24g>LL 24f> 24B>\	.	8ryy	.	.
24g> 24f> 24B>\	.	.	.	.
24g>JJ 24f> 24B>\	.	.	.	.
!!LO:LB:g=original
=6	=6	=6	=6	=6
8ryy	.	24gLL 24e 24c/	.	.
.	.	24g 24e 24c/	.	.
.	.	24gJJ 24e 24c/	.	.
24cc>LL 24g> 24e>\	.	8ryy	.	.
24cc> 24g> 24e>\	.	.	.	.
24cc>JJ 24g> 24e>\	.	.	.	.
8ryy	.	24eeLL 24cc 24g/	.	.
.	.	24ee 24cc 24g/	.	.
.	.	24eeJJ 24cc 24g/	.	.
24gg>LL 24cc#X> 24b-X>\	.	8ryy	.	.
24gg> 24cc#> 24b->\	.	.	.	.
24gg>JJ 24cc#> 24b->\	.	.	.	.
8ryy	.	24ff#XLL 24dd 24a/	.	.
.	.	24ff# 24dd 24a/	.	.
.	.	24ff#JJ 24dd 24a/	.	.
24ff>LL 24bn> 24a-X>\	.	8ryy	.	.
24ff> 24b> 24a->\	.	.	.	.
24ff>JJ 24b> 24a->\	.	.	.	.
=7	=7	=7	=7	=7
8ryy	.	24eeLL 24cc 24g/	.	.
.	.	24ee 24cc 24g/	.	.
.	.	24eeJJ 24cc 24g/	.	.
24dd#X>LL 24a> 24f#X>\	.	8ryy	.	.
24dd#> 24a> 24f#>\	.	.	.	.
24dd#>JJ 24a> 24f#>\	.	.	.	.
8ryy	.	24eeLL 24cc 24g/	.	.
.	.	24ee 24cc 24g/	.	.
.	.	24eeJJ 24cc 24g/	.	.
24ff>LL 24b> 24a>\	.	8ryy	.	.
24ff> 24b> 24a>\	.	.	.	.
24ff>JJ 24b> 24a>\	.	.	.	.
8ryy	.	24aLL 24fn 24cn/	.	.
.	.	24a 24f 24c/	.	.
.	.	24aJJ 24f 24c/	.	.
24b>LL 24fny> 24d>\	.	8ryy	.	.
24b> 24f> 24d>\	.	.	.	.
24b>JJ 24f> 24d>\	.	.	.	.
=8	=8	=8	=8	=8
8ryy	.	24gLL 24e 24c/	.	.
.	.	24g 24e 24c/	.	.
.	.	24gJJ 24e 24c/	.	.
24cc>LL 24g> 24e>\	.	8ryy	.	.
24cc> 24g> 24e>\	.	.	.	.
24cc>JJ 24g> 24e>\	.	.	.	.
8ryy	.	24f#XLL 24d#X 24c/	.	.
.	.	24f# 24d# 24c/	.	.
.	.	24f#JJ 24d# 24c/	.	.
24g>LL 24e> 24c>\	.	8ryy	.	.
24g> 24e> 24c>\	.	.	.	.
24g>JJ 24e> 24c>\	.	.	.	.
8ryy	.	24a-XLL 24fn 24c/	.	.
.	.	24a- 24f 24c/	.	.
.	.	24a-JJ 24f 24c/	.	.
24g>LL 24e> 24c>\	.	8ryy	.	.
24g> 24e> 24c>\	.	.	.	.
24g>JJ 24e> 24c>\	.	.	.	.
=9	=9	=9	=9	=9
8ryy	.	24gLL 24f 24B/	.	.
.	.	24g 24f 24B/	.	.
.	.	24gJJ 24f 24B/	.	.
24dd>LL 24g> 24f>\	.	8ryy	.	.
24dd> 24g> 24f>\	.	.	.	.
24dd>JJ 24g> 24f>\	.	.	.	.
8ryy	.	24bLL 24f 24d/	.	.
.	.	24b 24f 24d/	.	.
.	.	24bJJ 24f 24d/	.	.
24a>LL 24f> 24c>\	.	8ryy	.	.
24a> 24f> 24c>\	.	.	.	.
24a>JJ 24f> 24c>\	.	.	.	.
8ryy	.	24a-XLL 24f 24c/	.	.
.	.	24a- 24f 24c/	.	.
.	.	24a-JJ 24f 24c/	.	.
24g>LL 24f> 24B>\	.	8ryy	.	.
24g> 24f> 24B>\	.	.	.	.
24g>JJ 24f> 24B>\	.	.	.	.
=10	=10	=10	=10	=10
8ryy	.	24gLL 24e 24A#X/	.	.
.	.	24g 24e 24A#/	.	.
.	.	24gJJ 24e 24A#/	.	.
24g>LL 24f> 24B>\	.	8ryy	.	.
24g> 24f> 24B>\	.	.	.	.
24g>JJ 24f> 24B>\	.	.	.	.
8ryy	.	24gLL 24f 24c/	.	.
.	.	24g 24f 24c/	.	.
.	.	24gJJ 24f 24c/	.	.
24g>LL 24f> 24c#X>\	.	8ryy	.	.
24g> 24f> 24c#>\	.	.	.	.
24g>JJ 24f> 24c#>\	.	.	.	.
8ryy	.	24aLL 24f 24d/	.	.
.	.	24a 24f 24d/	.	.
.	.	24aJJ 24f 24d/	.	.
24g>LL 24f> 24d>\	.	8ryy	.	.
24g> 24f> 24d>\	.	.	.	.
24g>JJ 24f> 24d>\	.	.	.	.
=11	=11	=11	=11	=11
8ryy	.	24gLL 24e 24c/	.	.
.	.	24g 24e 24c/	.	.
.	.	24gJJ 24e 24c/	.	.
24ee>LL 24cc> 24g>\	.	8ryy	.	.
24ee> 24cc> 24g>\	.	.	.	.
24ee>JJ 24cc> 24g>\	.	.	.	.
8ryy	.	24ccLL 24g 24e/	.	.
.	.	24cc 24g 24e/	.	.
.	.	24ccJJ 24g 24e/	.	.
24a>LL 24e> 24c>\	.	8ryy	.	.
24a> 24e> 24c>\	.	.	.	.
24a>JJ 24e> 24c>\	.	.	.	.
8ryy	.	24a-XLL 24e-X 24c/	.	.
.	.	24a- 24e- 24c/	.	.
.	.	24a-JJ 24e- 24c/	.	.
24g>LL 24en> 24c>\	.	8ryy	.	.
24g> 24e> 24c>\	.	.	.	.
24g>JJ 24e> 24c>\	.	.	.	.
!!LO:LB:g=original
=12	=12	=12	=12	=12
8ryy	.	24gLL 24d#X 24B/	.	.
.	.	24g 24d# 24B/	.	.
.	.	24gJJ 24d# 24B/	.	.
24g>LL 24e> 24c>\	.	8ryy	.	.
24g> 24e> 24c>\	.	.	.	.
24g>JJ 24e> 24c>\	.	.	.	.
!	!	!LO:TX:t=P:problem:dopisany ołówkiem kasownik przy d	!	!
8ryy	.	24gLL 24f 24d#/	.	.
.	.	24g 24f 24d#/	.	.
.	.	24gJJ 24f 24d#/	.	.
24g>LL 24f#X> 24d#X>\	.	8ryy	.	.
24g> 24f#> 24d#>\	.	.	.	.
24g>JJ 24f#> 24d#>\	.	.	.	.
8ryy	.	24gLL 24g 24e/	.	.
.	.	24g 24g 24e/	.	.
.	.	24gJJ 24g 24e/	.	.
24a>LL 24g> 24e>\	.	8ryy	.	.
24a> 24g> 24e>\	.	.	.	.
24a>JJ 24g> 24e>\	.	.	.	.
=13	=13	=13	=13	=13
8ryy	.	24bLL 24g 24d/	.	.
.	.	24b 24g 24d/	.	.
.	.	24bJJ 24g 24d/	.	.
24dd>LL 24b> 24g>\	.	8ryy	.	.
24dd> 24b> 24g>\	.	.	.	.
24dd>JJ 24b> 24g>\	.	.	.	.
8ryy	.	24ggLL 24dd 24b/	.	.
.	.	24gg 24dd 24b/	.	.
.	.	24ggJJ 24dd 24b/	.	.
24bb>LL 24gg> 24dd>\	.	8ryy	.	.
24bb> 24gg> 24dd>\	.	.	.	.
24bb>JJ 24gg> 24dd>\	.	.	.	.
8ryy	.	24bb-XLL 24ee 24cc#X/	.	.
.	.	24bb- 24ee 24cc#/	.	.
.	.	24bb-JJ 24ee 24cc#/	.	.
24aa>LL 24ff> 24cc#y>\	.	8ryy	.	.
24aa> 24ff> 24cc#>\	.	.	.	.
24aa>JJ 24ff> 24cc#>\	.	.	.	.
=14	=14	=14	=14	=14
8ryy	.	24gg#XLL 24dd 24b/	.	.
.	.	24gg# 24dd 24b/	.	.
.	.	24gg#JJ 24dd 24b/	.	.
24ggn>LL 24ee-X> 24b-X>\	.	8ryy	.	.
24gg> 24ee-> 24b->\	.	.	.	.
24gg>JJ 24ee-> 24b->\	.	.	.	.
8ryy	.	24ee-yLL 24b-y 24g/	.	.
.	.	24ee- 24b- 24g/	.	.
.	.	24ee-JJ 24b- 24g/	.	.
24dd>LL 24a> 24f#X>\	.	8ryy	.	.
24dd> 24a> 24f#>\	.	.	.	.
24dd>JJ 24a> 24f#>\	.	.	.	.
8ryy	.	24ccLL 24g 24e/	.	.
.	.	24cc 24g 24e/	.	.
.	.	24ccJJ 24g 24e/	.	.
!LO:TX:t=P:problem:akord skreślony ołówkiem	!	!	!	!
24a>LL 24f#> 24c>\	.	8ryy	.	.
24a> 24f#> 24c>\	.	.	.	.
24a>JJ 24f#> 24c>\	.	.	.	.
=15	=15	=15	=15	=15
8ryy	.	24gLL 24f 24B/	.	.
.	.	24g 24f 24B/	.	.
.	.	24gJJ 24f 24B/	.	.
24dd>LL 24g> 24f>\	.	8ryy	.	.
24dd> 24g> 24f>\	.	.	.	.
24dd>JJ 24g> 24f>\	.	.	.	.
8ryy	.	24bLL 24f 24d/	.	.
.	.	24b 24f 24d/	.	.
.	.	24bJJ 24f 24d/	.	.
24a>LL 24f> 24c>\	.	8ryy	.	.
24a> 24f> 24c>\	.	.	.	.
24a>JJ 24f> 24c>\	.	.	.	.
8ryy	.	24a-XLL 24f 24c/	.	.
.	.	24a- 24f 24c/	.	.
.	.	24a-JJ 24f 24c/	.	.
24g>LL 24f> 24B>\	.	8ryy	.	.
24g> 24f> 24B>\	.	.	.	.
24g>JJ 24f> 24B>\	.	.	.	.
=16	=16	=16	=16	=16
8ryy	.	24gLL 24f 24B/	.	.
.	.	24g 24f 24B/	.	.
.	.	24gJJ 24f 24B/	.	.
24ff>LL 24dd> 24g>\	.	8ryy	.	.
24ff> 24dd> 24g>\	.	.	.	.
24ff>JJ 24dd> 24g>\	.	.	.	.
8ryy	.	24dd>LL 24b> 24f>/	.	.
.	.	24dd> 24b> 24f>/	.	.
.	.	24dd>JJ 24b> 24f>/	.	.
24cc#X>LL 24b-X> 24e>\	.	8ryy	.	.
24cc#> 24b-> 24e>\	.	.	.	.
24cc#>JJ 24b-> 24e>\	.	.	.	.
8ryy	.	24ccnLL 24a 24e-X/	.	.
.	.	24cc 24a 24e-/	.	.
.	.	24ccJJ 24a 24e-/	.	.
!LO:TX:t=P:problem:dopisane ołówkiem kasownik przy b	!	!	!	!
24b->LL 24g> 24d>\	.	8ryy	.	.
24b-> 24g> 24d>\	.	.	.	.
24b->JJ 24g> 24d>\	.	.	.	.
=17	=17	=17	=17	=17
8ryy	.	24bLL 24g 24d/	.	.
.	.	24b 24g 24d/	.	.
.	.	24bJJ 24g 24d/	.	.
24aa>LL 24ff> 24dd>\	.	8ryy	.	.
24aa> 24ff> 24dd>\	.	.	.	.
24aa>JJ 24ff> 24dd>\	.	.	.	.
8ryy	.	24ff#XLL 24ee-X 24cc/	.	.
.	.	24ff# 24ee- 24cc/	.	.
.	.	24ff#JJ 24ee- 24cc/	.	.
24gg>LL 24dd> 24b>\	.	8ryy	.	.
24gg> 24dd> 24b>\	.	.	.	.
24gg>JJ 24dd> 24b>\	.	.	.	.
8ryy	.	24eenLL 24dd-X 24b-X/	.	.
.	.	24ee 24dd- 24b-/	.	.
.	.	24eeJJ 24dd- 24b-/	.	.
24ffn>LL 24cc> 24a>\	.	8ryy	.	.
24ff> 24cc> 24a>\	.	.	.	.
24ff>JJ 24cc> 24a>\	.	.	.	.
!!LO:LB:g=original
=18	=18	=18	=18	=18
8ryy	.	24dd#XLL 24b 24a/	.	.
.	.	24dd# 24b 24a/	.	.
.	.	24dd#JJ 24b 24a/	.	.
24ee>LL 24b> 24g#X>\	.	8ryy	.	.
24ee> 24b> 24g#>\	.	.	.	.
24ee>JJ 24b> 24g#>\	.	.	.	.
8ryy	.	24cc#XLL 24a 24gn/	.	.
.	.	24cc# 24a 24g/	.	.
.	.	24cc#JJ 24a 24g/	.	.
24dd#y>LL 24a> 24f#X>\	.	8ryy	.	.
24dd#> 24a> 24f#>\	.	.	.	.
24dd#>JJ 24a> 24f#>\	.	.	.	.
8ryy	.	24aLL 24f#y 24d/	.	.
.	.	24a 24f# 24d/	.	.
.	.	24aJJ 24f# 24d/	.	.
24b>LL 24gny> 24fn> 24d>\	.	8ryy	.	.
24b> 24g> 24f> 24d>\	.	.	.	.
24b>JJ 24g> 24f> 24d>\	.	.	.	.
=19	=19	=19	=19	=19
8ryy	.	24gLL 24e 24c/	.	.
.	.	24g 24e 24c/	.	.
.	.	24gJJ 24e 24c/	.	.
24cc>LL 24g> 24e>\	.	8ryy	.	.
24cc> 24g> 24e>\	.	.	.	.
24cc>JJ 24g> 24e>\	.	.	.	.
8ryy	.	24gLL 24e 24c/	.	.
.	.	24g 24e 24c/	.	.
.	.	24gJJ 24e 24c/	.	.
24b>LL 24f> 24d>\	.	8ryy	.	.
24b> 24f> 24d>\	.	.	.	.
24b>JJ 24f> 24d>\	.	.	.	.
8ryy	.	24aLL 24f 24c/	.	.
.	.	24a 24f 24c/	.	.
.	.	24aJJ 24f 24c/	.	.
24g>LL 24f> 24B>\	.	8ryy	.	.
24g> 24f> 24B>\	.	.	.	.
24g>JJ 24f> 24B>\	.	.	.	.
=20	=20	=20	=20	=20
8ryy	.	24gLL 24e 24c/	.	.
.	.	24g 24e 24c/	.	.
.	.	24gJJ 24e 24c/	.	.
24cc>LL 24g> 24e>\	.	8ryy	.	.
24cc> 24g> 24e>\	.	.	.	.
24cc>JJ 24g> 24e>\	.	.	.	.
8ryy	.	24eeLL 24cc 24g/	.	.
.	.	24ee 24cc 24g/	.	.
.	.	24eeJJ 24cc 24g/	.	.
24gg>LL 24cc> 24b>\	.	8ryy	.	.
24gg> 24cc> 24b>\	.	.	.	.
24gg>JJ 24cc> 24b>\	.	.	.	.
8ryy	.	24ffLL 24cc 24a/	.	.
.	.	24ff 24cc 24a/	.	.
.	.	24ffJJ 24cc 24a/	.	.
24ee>LL 24cc> 24g>\	.	8ryy	.	.
24ee> 24cc> 24g>\	.	.	.	.
24ee>JJ 24cc> 24g>\	.	.	.	.
=21	=21	=21	=21	=21
8ryy	.	24ddLL 24cc 24f#X/	.	.
.	.	24dd 24cc 24f#/	.	.
.	.	24ddJJ 24cc 24f#/	.	.
24ee-X>LL 24cc> 24g>\	.	8ryy	.	.
24ee-> 24cc> 24g>\	.	.	.	.
24ee->JJ 24cc> 24g>\	.	.	.	.
8ryy	.	24ddLL 24cc 24f#/	.	.
.	.	24dd 24cc 24f#/	.	.
.	.	24ddJJ 24cc 24f#/	.	.
!LO:TX:t=P:problem:akord skreślony ołówkiem	!	!	!	!
24aa>LL 24ee-> 24cc>\	.	8ryy	.	.
24aa> 24ee-> 24cc>\	.	.	.	.
24aa>JJ 24ee-> 24cc>\	.	.	.	.
8ryy	.	24ee-yLL 24cc 24g/	.	.
.	.	24ee- 24cc 24g/	.	.
.	.	24ee-JJ 24cc 24g/	.	.
24dd>LL 24cc> 24f#y>\	.	8ryy	.	.
24dd> 24cc> 24f#>\	.	.	.	.
24dd>JJ 24cc> 24f#>\	.	.	.	.
=22	=22	=22	=22	=22
8ryy	.	24ddLL 24b 24fn/	.	.
.	.	24dd 24b 24f/	.	.
.	.	24ddJJ 24b 24f/	.	.
24ee>LL 24b> 24g>\	.	8ryy	.	.
24ee> 24b> 24g>\	.	.	.	.
24ee>JJ 24b> 24g>\	.	.	.	.
8ryy	.	24ddLL 24b 24f/	.	.
.	.	24dd 24b 24f/	.	.
.	.	24ddJJ 24b 24f/	.	.
24ff>LL 24b> 24a>\	.	8ryy	.	.
24ff> 24b> 24a>\	.	.	.	.
24ff>JJ 24b> 24a>\	.	.	.	.
8ryy	.	24eeLL 24b 24g/	.	.
.	.	24ee 24b 24g/	.	.
.	.	24eeJJ 24b 24g/	.	.
24dd>LL 24b> 24f>\	.	8ryy	.	.
24dd> 24b> 24f>\	.	.	.	.
24dd>JJ 24b> 24f>\	.	.	.	.
=23	=23	=23	=23	=23
8ryy	.	24gLL 24e 24c/	.	.
.	.	24g 24e 24c/	.	.
.	.	24gJJ 24e 24c/	.	.
24cc>LL 24g> 24e>\	.	8ryy	.	.
24cc> 24g> 24e>\	.	.	.	.
24cc>JJ 24g> 24e>\	.	.	.	.
8ryy	.	24gLL 24e 24c/	.	.
.	.	24g 24e 24c/	.	.
.	.	24gJJ 24e 24c/	.	.
24b>LL 24f> 24d>\	.	8ryy	.	.
24b> 24f> 24d>\	.	.	.	.
24b>JJ 24f> 24d>\	.	.	.	.
8ryy	.	24aLL 24f 24c/	.	.
.	.	24a 24f 24c/	.	.
.	.	24aJJ 24f 24c/	.	.
24g>LL 24f> 24B>\	.	8ryy	.	.
24g> 24f> 24B>\	.	.	.	.
24g>JJ 24f> 24B>\	.	.	.	.
!!LO:LB:g=original
=24	=24	=24	=24	=24
8ryy	.	24gLL 24e 24c/	.	.
.	.	24g 24e 24c/	.	.
.	.	24gJJ 24e 24c/	.	.
24cc>LL 24g> 24e>\	.	8ryy	.	.
24cc> 24g> 24e>\	.	.	.	.
24cc>JJ 24g> 24e>\	.	.	.	.
8ryy	.	24eeLL 24cc 24g/	.	.
.	.	24ee 24cc 24g/	.	.
.	.	24eeJJ 24cc 24g/	.	.
24gg>LL 24cc#X> 24b-X>\	.	8ryy	.	.
24gg> 24cc#> 24b->\	.	.	.	.
24gg>JJ 24cc#> 24b->\	.	.	.	.
8ryy	.	24ff#XLL 24dd 24a/	.	.
.	.	24ff# 24dd 24a/	.	.
.	.	24ff#JJ 24dd 24a/	.	.
24ffn>LL 24bn> 24a-X>\	.	8ryy	.	.
24ff> 24b> 24a->\	.	.	.	.
24ff>JJ 24b> 24a->\	.	.	.	.
=25	=25	=25	=25	=25
8ryy	.	24eeLL 24cc 24g/	.	.
.	.	24ee 24cc 24g/	.	.
.	.	24eeJJ 24cc 24g/	.	.
24dd#X>LL 24a> 24f#X>\	.	8ryy	.	.
24dd#> 24a> 24f#>\	.	.	.	.
24dd#>JJ 24a> 24f#>\	.	.	.	.
8ryy	.	24eeLL 24cc 24g/	.	.
.	.	24ee 24cc 24g/	.	.
.	.	24eeJJ 24cc 24g/	.	.
24ff>LL 24b> 24a>\	.	8ryy	.	.
24ff> 24b> 24a>\	.	.	.	.
24ff>JJ 24b> 24a>\	.	.	.	.
8ryy	.	24aLL 24f#y 24c#X/	.	.
.	.	24a 24f# 24c#/	.	.
.	.	24aJJ 24f# 24c#/	.	.
24b>LL 24f#> 24d>\	.	8ryy	.	.
24b> 24f#> 24d>\	.	.	.	.
24b>JJ 24f#> 24d>\	.	.	.	.
=26	=26	=26	=26	=26
8ryy	.	24gLL 24e 24c/	.	.
.	.	24g 24e 24c/	.	.
.	.	24gJJ 24e 24c/	.	.
24cc>LL 24g> 24e>\	.	8ryy	.	.
24cc> 24g> 24e>\	.	.	.	.
24cc>JJ 24g> 24e>\	.	.	.	.
8ryy	.	24f#XLL 24d#X 24c/	.	.
.	.	24f# 24d# 24c/	.	.
.	.	24f#JJ 24d# 24c/	.	.
!LO:TX:t=P:problem:akord skreślony ołówkiem	!	!	!	!
24cc>LL 24f#y> 24d#y>\	.	8ryy	.	.
24cc> 24f#> 24d#>\	.	.	.	.
24cc>JJ 24f#> 24d#>\	.	.	.	.
8ryy	.	24gLL 24e 24c/	.	.
.	.	24g 24e 24c/	.	.
.	.	24gJJ 24e 24c/	.	.
24cc>LL 24g> 24e>\	.	8ryy	.	.
24cc> 24g> 24e>\	.	.	.	.
24cc>JJ 24g> 24e>\	.	.	.	.
*clefF4	*	*clefF4	*	*
=27||	=27||	=27||	=27||	=27||
*k[b-e-a-d-]	*	*k[b-e-a-d-]	*below	*
8ryy	.	24E-<LL 24AA-</	2 5	.
.	.	24E-< 24AA-</	.	.
.	.	24E-<JJ 24AA-</	.	.
!	!	!	!	!LO:DY:t=f.
24cLL 24E-\	.	8ryy	.	f
24c 24E-\	.	.	.	.
24cJJ 24E-\	.	.	.	.
8ryy	.	24a-<LL 24c</	.	.
.	.	24a-< 24c</	.	.
.	.	24a-<JJ 24c</	.	.
24gLL 24d-\	.	8ryy	.	.
24g 24d-\	.	.	.	.
24gJJ 24d-\	.	.	.	.
8ryy	.	24d-<LL 24G</	.	.
.	.	24d-< 24G</	.	.
.	.	24d-<JJ 24G</	.	.
24GLL 24F-X\	.	8ryy	.	.
24G 24F-\	.	.	.	.
24GJJ 24F-\	.	.	.	.
=28	=28	=28	=28	=28
8ryy	.	24E-<LL 24AA-</	.	.
.	.	24E-< 24AA-</	.	.
.	.	24E-<JJ 24AA-</	.	.
24cLL 24E-\	.	8ryy	.	.
24c 24E-\	.	.	.	.
24cJJ 24E-\	.	.	.	.
8ryy	.	24a-<LL 24c</	.	.
.	.	24a-< 24c</	.	.
.	.	24a-<JJ 24c</	.	.
24gLL 24d-\	.	8ryy	.	.
24g 24d-\	.	.	.	.
24gJJ 24d-\	.	.	.	.
8ryy	.	24d-<LL 24G</	.	.
.	.	24d-< 24G</	.	.
.	.	24d-<JJ 24G</	.	.
24GLL 24F-X\	.	8ryy	.	.
24G 24F-\	.	.	.	.
24GJJ 24F-\	.	.	.	.
!!LO:LB:g=original
=29	=29	=29	=29	=29
8ryy	.	24E-<LL 24AA-</	.	.
.	.	24E-< 24AA-</	.	.
.	.	24E-<JJ 24AA-</	.	.
24a-LL 24e- 24c\	.	8ryy	.	.
24a- 24e- 24c\	.	.	.	.
24a-JJ 24e- 24c\	.	.	.	.
8ryy	.	24a-<LL 24dn< 24Bn</	.	.
.	.	24a-< 24d< 24B</	.	.
.	.	24a-<JJ 24d< 24B</	.	.
24a-LL 24e- 24c\	.	8ryy	.	.
24a- 24e- 24c\	.	.	.	.
24a-JJ 24e- 24c\	.	.	.	.
8ryy	.	24a-<LL 24f< 24d-X</	.	.
.	.	24a-< 24f< 24d-</	.	.
.	.	24a-<JJ 24f< 24d-</	.	.
24a-LL 24e- 24c\	.	8ryy	.	.
24a- 24e- 24c\	.	.	.	.
24a-JJ 24e- 24c\	.	.	.	.
=30	=30	=30	=30	=30
8ryy	.	24C<LL 24FF</	.	.
.	.	24C< 24FF</	.	.
.	.	24C<JJ 24FF</	.	.
24anLL 24e- 24c\	.	8ryy	.	.
24a 24e- 24c\	.	.	.	.
24aJJ 24e- 24c\	.	.	.	.
8ryy	.	24any<LL 24f< 24d-</	.	.
.	.	24a< 24f< 24d-</	.	.
.	.	24a<JJ 24f< 24d-</	.	.
24anLL 24g-X 24e-\	.	8ryy	.	.
24a 24g- 24e-\	.	.	.	.
24aJJ 24g- 24e-\	.	.	.	.
8ryy	.	24a<LL 24f< 24d-</	.	.
.	.	24a< 24f< 24d-</	.	.
.	.	24a<JJ 24f< 24d-</	.	.
24aLL 24e- 24c\	.	8ryy	.	.
24a 24e- 24c\	.	.	.	.
24aJJ 24e- 24c\	.	.	.	.
=31	=31	=31	=31	=31
8ryy	.	24F<LL 24BB-</	.	.
.	.	24F< 24BB-</	.	.
.	.	24F<JJ 24BB-</	.	.
24d-LL 24F\	.	8ryy	.	.
24d- 24F\	.	.	.	.
24d-JJ 24F\	.	.	.	.
*clefG2	*	*clefG2	*	*
8ryy	.	24b-LL 24d-/	.	.
.	.	24b- 24d-/	.	.
.	.	24b-JJ 24d-/	.	.
24an>LL 24e->\	.	8ryy	.	.
24a> 24e->\	.	.	.	.
24a>JJ 24e->\	.	.	.	.
8ryy	.	24e-LL 24An/	.	.
.	.	24e- 24A/	.	.
.	.	24e-JJ 24A/	.	.
*clefF4	*	*clefF4	*	*
24AnLL 24G-X\	.	8ryy	.	.
24A 24G-\	.	.	.	.
24AJJ 24G-\	.	.	.	.
=32	=32	=32	=32	=32
8ryy	.	24F<LL 24BB-</	.	.
.	.	24F< 24BB-</	.	.
.	.	24F<JJ 24BB-</	.	.
24d-LL 24F\	.	8ryy	.	.
24d- 24F\	.	.	.	.
24d-JJ 24F\	.	.	.	.
*clefG2	*	*clefG2	*	*
8ryy	.	24b-LL 24d-/	.	.
.	.	24b- 24d-/	.	.
.	.	24b-JJ 24d-/	.	.
24a->LL 24dn>\	.	8ryy	.	.
24a-> 24d>\	.	.	.	.
24a->JJ 24d>\	.	.	.	.
8ryy	.	24d-LL 24A-/	.	.
.	.	24d- 24A-/	.	.
.	.	24d-JJ 24A-/	.	.
*clefF4	*	*clefF4	*	*
24A-LL 24F\	.	8ryy	.	.
24A- 24F\	.	.	.	.
24A-JJ 24F\	.	.	.	.
=33	=33	=33	=33	=33
8ryy	.	24E-<LL 24EE-</	.	.
.	.	24E-< 24EE-</	.	.
.	.	24E-<JJ 24EE-</	.	.
24e-LL 24c 24A-\	.	8ryy	.	.
24e- 24c 24A-\	.	.	.	.
24e-JJ 24c 24A-\	.	.	.	.
8ryy	.	24dn<LL 24c< 24A-</	.	.
.	.	24d< 24c< 24A-</	.	.
.	.	24d<JJ 24c< 24A-</	.	.
24e-LL 24c 24A-\	.	8ryy	.	.
24e- 24c 24A-\	.	.	.	.
24e-JJ 24c 24A-\	.	.	.	.
8ryy	.	24f-X<LL 24d< 24A-</	.	.
.	.	24f-< 24d< 24A-</	.	.
.	.	24f-<JJ 24d< 24A-</	.	.
24e-LL 24c 24A-\	.	8ryy	.	.
24e- 24c 24A-\	.	.	.	.
24e-JJ 24c 24A-\	.	.	.	.
=34	=34	=34	=34	=34
8ryy	.	24E-<LL 24EE-</	.	.
.	.	24E-< 24EE-</	.	.
.	.	24E-<JJ 24EE-</	.	.
24GLL 24D-\	.	8ryy	.	.
24G 24D-\	.	.	.	.
24GJJ 24D-\	.	.	.	.
8ryy	.	24G<LL 24E-</	.	.
.	.	24G< 24E-</	.	.
.	.	24G<JJ 24E-</	.	.
24GLL 24F-X\	.	8ryy	.	.
24G 24F-\	.	.	.	.
24GJJ 24F-\	.	.	.	.
8ryy	.	24G<LL 24E-</	.	.
.	.	24G< 24E-</	.	.
.	.	24G<JJ 24E-</	.	.
24GLL 24D-\	.	8r	.	.
24G 24D-\	.	.	.	.
24GJJ 24D-\	.	.	.	.
!!LO:LB:g=original
=35	=35	=35	=35	=35
8ryy	.	24C<LL 24FF</	.	.
.	.	24C< 24FF</	.	.
.	.	24C<JJ 24FF</	.	.
24cLL 24A-\	.	8ryy	.	.
24c 24A-\	.	.	.	.
24cJJ 24A-\	.	.	.	.
8ryy	.	24a-<LL 24c</	.	.
.	.	24a-< 24c</	.	.
.	.	24a-<JJ 24c</	.	.
24gLL 24d-\	.	8ryy	.	.
24g 24d-\	.	.	.	.
24gJJ 24d-\	.	.	.	.
8ryy	.	24d-<LL 24G</	.	.
.	.	24d-< 24G</	.	.
.	.	24d-<JJ 24G</	.	.
24GLL 24En\	.	8r	.	.
24G 24E\	.	.	.	.
24GJJ 24E\	.	.	.	.
=36	=36	=36	=36	=36
8ryy	.	24C<LL 24FF</	.	.
.	.	24C< 24FF</	.	.
.	.	24C<JJ 24FF</	.	.
24cLL 24A-\	.	8ryy	.	.
24c 24A-\	.	.	.	.
24cJJ 24A-\	.	.	.	.
8ryy	.	24a-<LL 24c</	.	.
.	.	24a-< 24c</	.	.
.	.	24a-<JJ 24c</	.	.
24enLL 24B-\	.	8ryy	.	.
24e 24B-\	.	.	.	.
24eJJ 24B-\	.	.	.	.
8ryy	.	24B-<LL 24En</	.	.
.	.	24B-< 24E</	.	.
.	.	24B-<JJ 24E</	.	.
24EnyLL 24D-\	.	8ryy	.	.
24E 24D-\	.	.	.	.
24EJJ 24D-\	.	.	.	.
=37	=37	=37	=37	=37
8ryy	.	24AA-<LL 24DD-</	.	.
.	.	24AA-< 24DD-</	.	.
.	.	24AA-<JJ 24DD-</	.	.
24A-LL 24F\	.	8ryy	.	.
24A- 24F\	.	.	.	.
24A-JJ 24F\	.	.	.	.
*clefG2	*	*clefG2	*	*
8ryy	.	24fLL 24A-/	.	.
.	.	24f 24A-/	.	.
.	.	24fJJ 24A-/	.	.
24en>LL 24B->\	.	8ryy	.	.
24e> 24B->\	.	.	.	.
24e>JJ 24B->\	.	.	.	.
*clefF4	*	*clefF4	*	*
8ryy	.	24B-<LL 24En</	.	.
.	.	24B-< 24E</	.	.
.	.	24B-<JJ 24E</	.	.
24EnyLL 24D-\	.	8ryy	.	.
24E 24D-\	.	.	.	.
24EJJ 24D-\	.	.	.	.
=38	=38	=38	=38	=38
8ryy	.	24AA-<LL 24DD-</	.	.
.	.	24AA-< 24DD-</	.	.
.	.	24AA-<JJ 24DD-</	.	.
24A-LL 24F\	.	8r	.	.
24A- 24F\	.	.	.	.
24A-JJ 24F\	.	.	.	.
*clefG2	*	*clefG2	*	*
8ryy	.	24fLL 24A-/	.	.
.	.	24f 24A-/	.	.
.	.	24fJJ 24A-/	.	.
*clefF4	*	*clefF4	*	*
24cLL 24G-X\	.	8r	.	.
24c 24G-\	.	.	.	.
24cJJ 24G-\	.	.	.	.
8ryy	.	24G-y<LL 24C</	.	.
.	.	24G-< 24C</	.	.
.	.	24G-<JJ 24C</	.	.
24CLL 24AAn\	.	8ryy	.	.
24C 24AA\	.	.	.	.
24CJJ 24AA\	.	.	.	.
=39	=39	=39	=39	=39
8ryy	.	24FF<LL 24BBB-</	.	.
.	.	24FF< 24BBB-</	.	.
.	.	24FF<JJ 24BBB-</	.	.
24FLL 24D-\	.	8ryy	.	.
24F 24D-\	.	.	.	.
24FJJ 24D-\	.	.	.	.
8ryy	.	24d-<LL 24F</	.	.
.	.	24d-< 24F</	.	.
.	.	24d-<JJ 24F</	.	.
24cLL 24En\	.	8ryy	.	.
24c 24E\	.	.	.	.
24cJJ 24E\	.	.	.	.
8ryy	.	24Eny<LL 24C</	.	.
.	.	24E< 24C</	.	.
.	.	24E<JJ 24C</	.	.
24CLL 24GG\	.	8ryy	.	.
24C 24GG\	.	.	.	.
24CJJ 24GG\	.	.	.	.
!!LO:LB:g=original
=40	=40	=40	=40	=40
8ryy	.	24BB-<LL 24DD-</	.	.
.	.	24BB-< 24DD-</	.	.
.	.	24BB-<JJ 24DD-</	.	.
24FLL 24D-\	.	8ryy	.	.
24F 24D-\	.	.	.	.
24FJJ 24D-\	.	.	.	.
8ryy	.	24B-<LL 24F</	.	.
.	.	24B-< 24F</	.	.
.	.	24B-<JJ 24F</	.	.
24fLL 24Bn\	.	8ryy	.	.
24f 24B\	.	.	.	.
24fJJ 24B\	.	.	.	.
8ryy	.	24Bny<LL 24F</	.	.
.	.	24B< 24F</	.	.
.	.	24B<JJ 24F</	.	.
24FLL 24BBn\	.	8ryy	.	.
24F 24BB\	.	.	.	.
24FJJ 24BB\	.	.	.	.
=41	=41	=41	=41	=41
8ryy	.	24E-<LL 24EE-</	.	.
.	.	24E-< 24EE-</	.	.
.	.	24E-<JJ 24EE-</	.	.
24e-LL 24c 24A-\	.	8ryy	.	.
24e- 24c 24A-\	.	.	.	.
24e-JJ 24c 24A-\	.	.	.	.
8ryy	.	24c<LL 24A-< 24E-</	.	.
.	.	24c< 24A-< 24E-</	.	.
.	.	24c<JJ 24A-< 24E-</	.	.
24A-LL 24E- 24C\	.	8ryy	.	.
24A- 24E- 24C\	.	.	.	.
24A-JJ 24E- 24C\	.	.	.	.
8ryy	.	24A-<LL 24F-X< 24D-</	.	.
.	.	24A-< 24F-< 24D-</	.	.
.	.	24A-<JJ 24F-< 24D-</	.	.
24A-LL 24Fn 24Dn\	.	8ryy	.	.
24A- 24F 24D\	.	.	.	.
24A-JJ 24F 24D\	.	.	.	.
=42	=42	=42	=42	=42
8ryy	.	24E-<LL 24EE-</	.	.
.	.	24E-< 24EE-</	.	.
.	.	24E-<JJ 24EE-</	.	.
24cLL 24G 24E-\	.	8ryy	.	.
24c 24G 24E-\	.	.	.	.
24cJJ 24G 24E-\	.	.	.	.
8ryy	.	24c<LL 24G< 24F-X</	.	.
.	.	24c< 24G< 24F-</	.	.
.	.	24c<JJ 24G< 24F-</	.	.
24cLL 24G 24E-\	.	8ryy	.	.
24c 24G 24E-\	.	.	.	.
24cJJ 24G 24E-\	.	.	.	.
8ryy	.	24c<LL 24G< 24Dn</	.	.
.	.	24c< 24G< 24D</	.	.
.	.	24c<JJ 24G< 24D</	.	.
24B-LL 24G 24D-X\	.	8ryy	.	.
24B- 24G 24D-\	.	.	.	.
24B-JJ 24G 24D-\	.	.	.	.
=43	=43	=43	=43	=43
8ryy	.	24C<LL 24FF</	.	.
.	.	24C< 24FF</	.	.
.	.	24C<JJ 24FF</	.	.
24cLL 24A-\	.	8ryy	.	.
24c 24A-\	.	.	.	.
24cJJ 24A-\	.	.	.	.
8ryy	.	24a-<LL 24c</	.	.
.	.	24a-< 24c</	.	.
.	.	24a-<JJ 24c</	.	.
24gLL 24d-\	.	8ryy	.	.
24g 24d-\	.	.	.	.
24gJJ 24d-\	.	.	.	.
8ryy	.	24d-<LL 24G</	.	.
.	.	24d-< 24G</	.	.
.	.	24d-<JJ 24G</	.	.
24GLL 24En\	.	8ryy	.	.
24G 24E\	.	.	.	.
24GJJ 24E\	.	.	.	.
=44	=44	=44	=44	=44
8ryy	.	24C<LL 24FF</	.	.
.	.	24C< 24FF</	.	.
.	.	24C<JJ 24FF</	.	.
24cLL 24A-\	.	8ryy	.	.
24c 24A-\	.	.	.	.
24cJJ 24A-\	.	.	.	.
8ryy	.	24a-<LL 24c</	.	.
.	.	24a-< 24c</	.	.
.	.	24a-<JJ 24c</	.	.
*clefG2	*	*clefG2	*	*
24cc>LL 24f#X>\	.	8ryy	.	.
24cc> 24f#>\	.	.	.	.
24cc>JJ 24f#>\	.	.	.	.
8ryy	.	24f#yLL 24c/	.	.
.	.	24f# 24c/	.	.
.	.	24f#JJ 24c/	.	.
*clefF4	*	*clefF4	*	*
24cLL 24F#X\	.	8ryy	.	.
24c 24F#\	.	.	.	.
24cJJ 24F#\	.	.	.	.
!!LO:LB:g=original
=45	=45	=45	=45	=45
8ryy	.	24Dn<LL 24GG</	.	.
.	.	24D< 24GG</	.	.
.	.	24D<JJ 24GG</	.	.
24dnLL 24Bn 24G\	.	8ryy	.	.
24d 24B 24G\	.	.	.	.
24dJJ 24B 24G\	.	.	.	.
*clefG2	*	*clefG2	*	*
8ryy	.	24bnLL 24g 24dn/	.	.
.	.	24b 24g 24d/	.	.
.	.	24bJJ 24g 24d/	.	.
24cc>LL 24f#X>\	.	8ryy	.	.
24cc> 24f#>\	.	.	.	.
24cc>JJ 24f#>\	.	.	.	.
8ryy	.	24f#yLL 24c/	.	.
.	.	24f# 24c/	.	.
.	.	24f#JJ 24c/	.	.
*clefF4	*	*clefF4	*	*
24cLL 24F\	.	8ryy	.	.
24c 24F\	.	.	.	.
24cJJ 24F\	.	.	.	.
=46	=46	=46	=46	=46
8ryy	.	24Dn<LL 24GG</	.	.
.	.	24D< 24GG</	.	.
.	.	24D<JJ 24GG</	.	.
24dnLL 24Bn 24G\	.	8ryy	.	.
24d 24B 24G\	.	.	.	.
24dJJ 24B 24G\	.	.	.	.
*clefG2	*	*clefG2	*	*
8ryy	.	24bnLL 24g 24dn/	.	.
.	.	24b 24g 24d/	.	.
.	.	24bJJ 24g 24d/	.	.
24ee->LL 24cc> 24f#X>\	.	8ryy	.	.
24ee-> 24cc> 24f#>\	.	.	.	.
24ee->JJ 24cc> 24f#>\	.	.	.	.
8ryy	.	24ccLL 24f#y 24c/	.	.
.	.	24cc 24f# 24c/	.	.
.	.	24ccJJ 24f# 24c/	.	.
*clefF4	*	*clefF4	*	*
24e-LL 24c 24F#X\	.	8r	.	.
24e- 24c 24F#\	.	.	.	.
24e-JJ 24c 24F#\	.	.	.	.
=47	=47	=47	=47	=47
8ryy	.	24Dn<LL 24GG</	.	.
.	.	24D< 24GG</	.	.
.	.	24D<JJ 24GG</	.	.
24dnLL 24Bn 24G\	.	8r	.	.
24d 24B 24G\	.	.	.	.
24dJJ 24B 24G\	.	.	.	.
*clefG2	*	*clefG2	*	*
8ryy	.	24bnLL 24g 24dn/	.	.
.	.	24b 24g 24d/	.	.
.	.	24bJJ 24g 24d/	.	.
24ff#X>LL 24ee-> 24cc>\	.	8ryy	.	.
24ff#> 24ee-> 24cc>\	.	.	.	.
24ff#>JJ 24ee-> 24cc>\	.	.	.	.
8ryy	.	24ccLL 24f 24c/	.	.
.	.	24cc 24f 24c/	.	.
.	.	24ccJJ 24f 24c/	.	.
24ff#>LL 24ee-> 24cc>\	.	8ryy	.	.
24ff#> 24ee-> 24cc>\	.	.	.	.
24ff#>JJ 24ee-> 24cc>\	.	.	.	.
=48	=48	=48	=48	=48
8ryy	.	24cccLL 24ff#X 24cc/	.	.
.	.	24ccc 24ff# 24cc/	.	.
.	.	24cccJJ 24ff# 24cc/	.	.
24ee->LL 24cc> 24f#X>\	.	8ryy	.	.
24ee-> 24cc> 24f#>\	.	.	.	.
24ee->JJ 24cc> 24f#>\	.	.	.	.
8ryy	.	24cccLL 24ff# 24cc/	.	.
.	.	24ccc 24ff# 24cc/	.	.
.	.	24cccJJ 24ff# 24cc/	.	.
24fff#X>LL 24eee-> 24ccc>\	.	8ryy	.	.
24fff#> 24eee-> 24ccc>\	.	.	.	.
24fff#>JJ 24eee-> 24ccc>\	.	.	.	.
8ryy	.	24cccLL 24ff# 24cc/	.	.
.	.	24ccc 24ff# 24cc/	.	.
.	.	24cccJJ 24ff# 24cc/	.	.
24fff#>LL 24eee-> 24ccc>\	.	8ryy	.	.
24fff#> 24eee-> 24ccc>\	.	.	.	.
24fff#>JJ 24eee-> 24ccc>\	.	.	.	.
=49	=49	=49	=49	=49
8ryy	.	24gggLL 24bbn 24gg/	.	.
.	.	24ggg 24bb 24gg/	.	.
.	.	24gggJJ 24bb 24gg/	.	.
24dddn>LL 24bbny> 24gg>\	4 3 1	8ryy	.	.
24ddd> 24bb> 24gg>\	.	.	.	.
24ddd>JJ 24bb> 24gg>\	.	.	.	.
8ryy	.	24bbLL 24gg 24ddn/	.	.
.	.	24bb 24gg 24dd/	.	.
.	.	24bbJJ 24gg 24dd/	.	.
24gg>LL 24ddny> 24bn>\	.	8ryy	.	.
24gg> 24dd> 24b>\	.	.	.	.
24gg>JJ 24dd> 24b>\	.	.	.	.
4ryy	.	24ddLL 24bny 24g/	.	.
.	.	24dd 24b 24g/	.	.
.	.	24ddJJ 24b 24g/	.	.
.	.	24bLL 24g 24dn/	.	.
.	.	24b 24g 24d/	.	.
.	.	24bJJ 24g 24d/	.	.
!!LO:LB:g=original
=50	=50	=50	=50	=50
8ryy	.	24gLL 24dn 24Bn/	.	.
.	.	24g 24d 24B/	.	.
.	.	24gJJ 24d 24B/	.	.
24g>LL 24dny> 24Bny>\	.	8ryy	.	.
24g> 24d> 24B>\	.	.	.	.
24g>JJ 24d> 24B>\	.	.	.	.
!	!	!LO:TX:t=P:problem:dopisany ołówkiem kasownik przy e	!	!
8ryy	.	24gLL 24e- 24B/	.	.
.	.	24g 24e- 24B/	.	.
.	.	24gJJ 24e- 24B/	.	.
24g>LL 24f> 24B>\	.	8ryy	.	.
24g> 24f> 24B>\	.	.	.	.
24g>JJ 24f> 24B>\	.	.	.	.
8ryy	.	24gLL 24e- 24B/	.	.
.	.	24g 24e- 24B/	.	.
.	.	24gJJ 24e- 24B/	.	.
24g>LL 24d> 24B>\	.	8ryy	.	.
24g> 24d> 24B>\	.	.	.	.
24g>JJ 24d> 24B>\	.	.	.	.
=51||	=51||	=51||	=51||	=51||
*k[]	*	*k[]	*	*
8ryy	.	24gLL 24e 24c/	.	p
.	.	24g 24e 24c/	.	.
.	.	24gJJ 24e 24c/	.	.
24cc>LL 24g> 24e>\	.	8ryy	.	.
24cc> 24g> 24e>\	.	.	.	.
24cc>JJ 24g> 24e>\	.	.	.	.
8ryy	.	24gLL 24e 24c/	.	.
.	.	24g 24e 24c/	.	.
.	.	24gJJ 24e 24c/	.	.
24bn>LL 24f> 24d>\	.	8ryy	.	.
24b> 24f> 24d>\	.	.	.	.
24b>JJ 24f> 24d>\	.	.	.	.
8ryy	.	24aLL 24f 24c/	.	.
.	.	24a 24f 24c/	.	.
.	.	24aJJ 24f 24c/	.	.
24g>LL 24f> 24B>\	.	8ryy	.	.
24g> 24f> 24B>\	.	.	.	.
24g>JJ 24f> 24B>\	.	.	.	.
=52	=52	=52	=52	=52
8ryy	.	24gLL 24e 24c/	.	.
.	.	24g 24e 24c/	.	.
.	.	24gJJ 24e 24c/	.	.
24cc>LL 24g> 24e>\	.	8ryy	.	.
24cc> 24g> 24e>\	.	.	.	.
24cc>JJ 24g> 24e>\	.	.	.	.
8ryy	.	24eeLL 24cc 24g/	.	.
.	.	24ee 24cc 24g/	.	.
.	.	24eeJJ 24cc 24g/	.	.
24gg>LL 24cc> 24b>\	.	8ryy	.	.
24gg> 24cc> 24b>\	.	.	.	.
24gg>JJ 24cc> 24b>\	.	.	.	.
8ryy	.	24ffLL 24cc 24a/	.	.
.	.	24ff 24cc 24a/	.	.
.	.	24ffJJ 24cc 24a/	.	.
24ee>LL 24cc> 24g>\	.	8ryy	.	.
24ee> 24cc> 24g>\	.	.	.	.
24ee>JJ 24cc> 24g>\	.	.	.	.
=53	=53	=53	=53	=53
8ryy	.	24ddLL 24cc 24f#X/	.	.
.	.	24dd 24cc 24f#/	.	.
.	.	24ddJJ 24cc 24f#/	.	.
24ee-X>LL 24cc> 24g>\	.	8ryy	.	.
24ee-> 24cc> 24g>\	.	.	.	.
24ee->JJ 24cc> 24g>\	.	.	.	.
8ryy	.	24ddLL 24cc 24f#/	.	.
.	.	24dd 24cc 24f#/	.	.
.	.	24ddJJ 24cc 24f#/	.	.
!LO:TX:t=P:problem:akord skreślony ołówkiem	!	!	!	!
24aa>LL 24ee-> 24cc>\	.	8ryy	.	.
24aa> 24ee-> 24cc>\	.	.	.	.
24aa>JJ 24ee-> 24cc>\	.	.	.	.
8ryy	.	24ee-yLL 24cc 24g/	.	.
.	.	24ee- 24cc 24g/	.	.
.	.	24ee-JJ 24cc 24g/	.	.
24dd>LL 24cc> 24f#y>\	.	8ryy	.	.
24dd> 24cc> 24f#>\	.	.	.	.
24dd>JJ 24cc> 24f#>\	.	.	.	.
=54	=54	=54	=54	=54
8ryy	.	24ddLL 24b 24fn/	.	.
.	.	24dd 24b 24f/	.	.
.	.	24ddJJ 24b 24f/	.	.
24ee>LL 24b> 24g>\	.	8ryy	.	.
24ee> 24b> 24g>\	.	.	.	.
24ee>JJ 24b> 24g>\	.	.	.	.
8ryy	.	24ddLL 24b 24f/	.	.
.	.	24dd 24b 24f/	.	.
.	.	24ddJJ 24b 24f/	.	.
24ff>LL 24b> 24a>\	.	8ryy	.	.
24ff> 24b> 24a>\	.	.	.	.
24ff>JJ 24b> 24a>\	.	.	.	.
8ryy	.	24eeLL 24b 24g/	.	.
.	.	24ee 24b 24g/	.	.
.	.	24eeJJ 24b 24g/	.	.
24dd>LL 24b> 24f>\	.	8ryy	.	.
24dd> 24b> 24f>\	.	.	.	.
24dd>JJ 24b> 24f>\	.	.	.	.
!!LO:PB:g=original
=55	=55	=55	=55	=55
8ryy	.	24gLL 24e 24c/	.	.
.	.	24g 24e 24c/	.	.
.	.	24gJJ 24e 24c/	.	.
24cc>LL 24g> 24e>\	.	8ryy	.	.
24cc> 24g> 24e>\	.	.	.	.
24cc>JJ 24g> 24e>\	.	.	.	.
8ryy	.	24gLL 24e 24c/	.	.
.	.	24g 24e 24c/	.	.
.	.	24gJJ 24e 24c/	.	.
24b>LL 24f> 24d>\	.	8ryy	.	.
24b> 24f> 24d>\	.	.	.	.
24b>JJ 24f> 24d>\	.	.	.	.
8ryy	.	24aLL 24f 24c/	.	.
.	.	24a 24f 24c/	.	.
.	.	24aJJ 24f 24c/	.	.
24g>LL 24f> 24B>\	.	8ryy	.	.
24g> 24f> 24B>\	.	.	.	.
24g>JJ 24f> 24B>\	.	.	.	.
=56	=56	=56	=56	=56
8ryy	.	24gLL 24e 24c/	.	.
.	.	24g 24e 24c/	.	.
.	.	24gJJ 24e 24c/	.	.
24cc>LL 24g> 24e>\	.	8ryy	.	.
24cc> 24g> 24e>\	.	.	.	.
24cc>JJ 24g> 24e>\	.	.	.	.
8ryy	.	24eeLL 24cc 24g/	.	.
.	.	24ee 24cc 24g/	.	.
.	.	24eeJJ 24cc 24g/	.	.
24gg>LL 24cc#X> 24b-X>\	.	8ryy	.	.
24gg> 24cc#> 24b->\	.	.	.	.
24gg>JJ 24cc#> 24b->\	.	.	.	.
8ryy	.	24ff#XLL 24dd 24a/	.	.
.	.	24ff# 24dd 24a/	.	.
.	.	24ff#JJ 24dd 24a/	.	.
24ff#y>LL 24bn> 24a-X>\	.	8ryy	.	.
24ff#> 24b> 24a->\	.	.	.	.
24ff#>JJ 24b> 24a->\	.	.	.	.
=57	=57	=57	=57	=57
8ryy	.	24eeLL 24cc 24g/	.	.
.	.	24ee 24cc 24g/	.	.
.	.	24eeJJ 24cc 24g/	.	.
24dd#X>LL 24a> 24f#X>\	.	8ryy	.	.
24dd#> 24a> 24f#>\	.	.	.	.
24dd#>JJ 24a> 24f#>\	.	.	.	.
8ryy	.	24eeLL 24cc 24g/	.	.
.	.	24ee 24cc 24g/	.	.
.	.	24eeJJ 24cc 24g/	.	.
24ff>LL 24b> 24a>\	.	8ryy	.	.
24ff> 24b> 24a>\	.	.	.	.
24ff>JJ 24b> 24a>\	.	.	.	.
*	*	*	*below	*
8ryy	.	24aLL 24f#y 24c#X/	2	.
.	.	24a 24f# 24c#/	.	.
.	.	24aJJ 24f# 24c#/	.	.
24b>LL 24f#> 24d>\	.	8ryy	.	.
24b> 24f#> 24d>\	.	.	.	.
24b>JJ 24f#> 24d>\	.	.	.	.
=58||	=58||	=58||	=58||	=58||
8ryy	.	24gLL 24e 24c/	.	.
.	.	24g 24e 24c/	.	.
.	.	24gJJ 24e 24c/	.	.
24cc>LL 24g> 24e>\	.	8ryy	.	.
24cc> 24g> 24e>\	.	.	.	.
24cc>JJ 24g> 24e>\	.	.	.	.
8ryy	.	24f#XLL 24d#X 24c/	.	.
.	.	24f# 24d# 24c/	.	.
.	.	24f#JJ 24d# 24c/	.	.
24g>LL 24e> 24c>\	.	8ryy	.	.
24g> 24e> 24c>\	.	.	.	.
24g>JJ 24e> 24c>\	.	.	.	.
8ryy	.	24a-XLL 24fn 24c/	.	.
.	.	24a- 24f 24c/	.	.
.	.	24a-JJ 24f 24c/	.	.
24g>LL 24e> 24c>\	.	8ryy	.	.
24g> 24e> 24c>\	.	.	.	.
24g>JJ 24e> 24c>\	.	.	.	.
=59	=59	=59	=59	=59
8ryy	.	24gLL 24f 24B/	.	.
.	.	24g 24f 24B/	.	.
.	.	24gJJ 24f 24B/	.	.
24dd>LL 24g> 24f>\	.	8ryy	.	.
24dd> 24g> 24f>\	.	.	.	.
24dd>JJ 24g> 24f>\	.	.	.	.
8ryy	.	24f#XLL 24fny 24B/	.	.
.	.	24f#X 24fn 24B/	.	.
.	.	24f#XJJ 24fn 24B/	.	.
!LO:TX:t=P:problem:dopisany ołówkiem kasownik przy f	!	!	!	!
24g>LL 24fny> 24B>\	.	8ryy	.	.
24g> 24f> 24B>\	.	.	.	.
24g>JJ 24f> 24B>\	.	.	.	.
8ryy	.	24a-XLL 24fn 24B/	.	.
.	.	24a- 24f 24B/	.	.
.	.	24a-JJ 24f 24B/	.	.
24g>LL 24f> 24B>\	.	8ryy	.	.
24g> 24f> 24B>\	.	.	.	.
24g>JJ 24f> 24B>\	.	.	.	.
!!LO:LB:g=original
=60	=60	=60	=60	=60
8ryy	.	24gLL 24e 24c/	.	.
.	.	24g 24e 24c/	.	.
.	.	24gJJ 24e 24c/	.	.
24cc>LL 24g> 24e>\	.	8ryy	.	.
24cc> 24g> 24e>\	.	.	.	.
24cc>JJ 24g> 24e>\	.	.	.	.
8ryy	.	24eeLL 24cc 24g/	.	.
.	.	24ee 24cc 24g/	.	.
.	.	24eeJJ 24cc 24g/	.	.
24gg>LL 24cc#X> 24b-X>\	.	8ryy	.	.
24gg> 24cc#> 24b->\	.	.	.	.
24gg>JJ 24cc#> 24b->\	.	.	.	.
8ryy	.	24ff#XLL 24dd 24a/	.	.
.	.	24ff# 24dd 24a/	.	.
.	.	24ff#JJ 24dd 24a/	.	.
24ffn>LL 24bn> 24a-X>\	.	8ryy	.	.
24ff> 24b> 24a->\	.	.	.	.
24ff>JJ 24b> 24a->\	.	.	.	.
=61	=61	=61	=61	=61
8ryy	.	24eeLL 24cc 24g/	.	.
.	.	24ee 24cc 24g/	.	.
.	.	24eeJJ 24cc 24g/	.	.
24dd#X>LL 24a> 24f#X>\	.	8ryy	.	.
24dd#> 24a> 24f#>\	.	.	.	.
24dd#>JJ 24a> 24f#>\	.	.	.	.
8ryy	.	24eeLL 24cc 24g/	.	.
.	.	24ee 24cc 24g/	.	.
.	.	24eeJJ 24cc 24g/	.	.
24ff>LL 24b> 24a>\	.	8ryy	.	.
24ff> 24b> 24a>\	.	.	.	.
24ff>JJ 24b> 24a>\	.	.	.	.
8ryy	.	24aLL 24g 24c#X/	.	.
.	.	24a 24g 24c#/	.	.
.	.	24aJJ 24g 24c#/	.	.
24b>LL 24f#> 24d>\	.	8ryy	.	.
24b> 24f#> 24d>\	.	.	.	.
24b>JJ 24f#> 24d>\	.	.	.	.
=62	=62	=62	=62	=62
8ryy	.	24gLL 24e 24c/	.	.
.	.	24g 24e 24c/	.	.
.	.	24gJJ 24e 24c/	.	.
24cc>LL 24g> 24e>\	.	8ryy	.	.
24cc> 24g> 24e>\	.	.	.	.
24cc>JJ 24g> 24e>\	.	.	.	.
8ryy	.	24f#XLL 24d#X 24c/	.	.
.	.	24f# 24d# 24c/	.	.
.	.	24f#JJ 24d# 24c/	.	.
24g>LL 24e> 24c>\	.	8ryy	.	.
24g> 24e> 24c>\	.	.	.	.
24g>JJ 24e> 24c>\	.	.	.	.
8ryy	.	24a-XLL 24fn 24c/	.	.
.	.	24a- 24f 24c/	.	.
.	.	24a-JJ 24f 24c/	.	.
24g>LL 24e> 24c>\	.	8ryy	.	.
24g> 24e> 24c>\	.	.	.	.
24g>JJ 24e> 24c>\	.	.	.	.
=63	=63	=63	=63	=63
8ryy	.	24gLL 24f 24B/	.	.
.	.	24g 24f 24B/	.	.
.	.	24gJJ 24f 24B/	.	.
24dd>LL 24g> 24f>\	.	8ryy	.	.
24dd> 24g> 24f>\	.	.	.	.
24dd>JJ 24g> 24f>\	.	.	.	.
8ryy	.	24f#XLL 24fny 24B/	.	.
.	.	24f#X 24fn 24B/	.	.
.	.	24f#XJJ 24fn 24B/	.	.
24g>LL 24fn> 24B>\	.	8ryy	.	.
24g> 24f> 24B>\	.	.	.	.
24g>JJ 24f> 24B>\	.	.	.	.
8ryy	.	24a-XLL 24f 24B/	.	.
.	.	24a- 24f 24B/	.	.
.	.	24a-JJ 24f 24B/	.	.
24g>LL 24f> 24B>\	.	8ryy	.	.
24g> 24f> 24B>\	.	.	.	.
24g>JJ 24f> 24B>\	.	.	.	.
=64	=64	=64	=64	=64
8ryy	.	24gLL 24e 24c/	.	.
.	.	24g 24e 24c/	.	.
.	.	24gJJ 24e 24c/	.	.
24cc>LL 24g> 24e>\	.	8ryy	.	.
24cc> 24g> 24e>\	.	.	.	.
24cc>JJ 24g> 24e>\	.	.	.	.
8ryy	.	24eeLL 24cc 24g/	.	.
.	.	24ee 24cc 24g/	.	.
.	.	24eeJJ 24cc 24g/	.	.
24gg>LL 24cc> 24b-X>\	.	8ryy	.	.
24gg> 24cc> 24b->\	.	.	.	.
24gg>JJ 24cc> 24b->\	.	.	.	.
8ryy	.	24ff#XLL 24cc 24a/	.	.
.	.	24ff# 24cc 24a/	.	.
.	.	24ff#JJ 24cc 24a/	.	.
24gg>LL 24cc> 24b->\	.	8ryy	.	.
24gg> 24cc> 24b->\	.	.	.	.
24gg>JJ 24cc> 24b->\	.	.	.	.
!!LO:LB:g=original
=65	=65	=65	=65	=65
8ryy	.	24ccLL 24a 24f/	.	.
.	.	24cc 24a 24f/	.	.
.	.	24ccJJ 24a 24f/	.	.
24ff>LL 24cc> 24a>\	.	8ryy	.	.
24ff> 24cc> 24a>\	.	.	.	.
24ff>JJ 24cc> 24a>\	.	.	.	.
8ryy	.	24aaLL 24ff 24cc/	.	.
.	.	24aa 24ff 24cc/	.	.
.	.	24aaJJ 24ff 24cc/	.	.
24ccc>LL 24aa> 24ff>\	.	8ryy	.	.
24ccc> 24aa> 24ff>\	.	.	.	.
24ccc>JJ 24aa> 24ff>\	.	.	.	.
8ryy	.	24cccLL 24gg#X 24ee/	.	.
.	.	24ccc 24gg# 24ee/	.	.
.	.	24cccJJ 24gg# 24ee/	.	.
24ccc>LL 24aa> 24ff>\	.	8ryy	.	.
24ccc> 24aa> 24ff>\	.	.	.	.
24ccc>JJ 24aa> 24ff>\	.	.	.	.
=66	=66	=66	=66	=66
!	!	!	!	!LO:HP:t=cresc
8ryy	.	24ff#XLL 24ee-X 24a/	.	<
.	.	24ff# 24ee- 24a/	.	.
.	.	24ff#JJ 24ee- 24a/	.	.
24ccc>LL 24ff#y> 24ee-y>\	.	8ryy	.	.
24ccc> 24ff#> 24ee->\	.	.	.	.
24ccc>JJ 24ff#> 24ee->\	.	.	.	.
8ryy	.	24eee-XLL 24ccc 24ff#/	.	.
.	.	24eee- 24ccc 24ff#/	.	.
.	.	24eee-JJ 24ccc 24ff#/	.	.
24aa>LL 24ff#> 24cc>\	.	8ryy	.	.
24aa> 24ff#> 24cc>\	.	.	.	.
24aa>JJ 24ff#> 24cc>\	.	.	.	.
8ryy	.	24eee-LL 24ccc 24ff#/	.	.
.	.	24eee- 24ccc 24ff#/	.	.
.	.	24eee-JJ 24ccc 24ff#/	.	.
24fff#X>LL 24eee-y> 24aa>\	.	8ryy	.	.
24fff#> 24eee-> 24aa>\	.	.	.	.
24fff#>JJ 24eee-> 24aa>\	.	.	.	.
=67	=67	=67	=67	=67
*8va	*	*8va	*	*
8ryy	.	24cccLL 24aa 24ee-X/	.	.
.	.	24ccc 24aa 24ee-/	.	.
.	.	24cccJJ 24aa 24ee-/	.	.
24fff#X>LL 24eee-X> 24aa>\	.	8ryy	.	.
24fff#> 24eee-> 24aa>\	.	.	.	.
24fff#>JJ 24eee-> 24aa>\	.	.	.	.
8ryy	.	24aaaLL 24fff#y 24aa/	.	.
.	.	24aaa 24fff# 24aa/	.	.
.	.	24aaaJJ 24fff# 24aa/	.	.
24eee-y>LL 24ccc> 24ff#X>\	.	8ryy	.	.
24eee-> 24ccc> 24ff#>\	.	.	.	.
24eee->JJ 24ccc> 24ff#>\	.	.	.	.
8ryy	.	24aaaLL 24fff# 24ccc/	.	.
.	.	24aaa 24fff# 24ccc/	.	.
.	.	24aaaJJ 24fff# 24ccc/	.	.
24cccc>LL 24aaa> 24eee->\	.	8ryy	.	.
24cccc> 24aaa> 24eee->\	.	.	.	.
24cccc>JJ 24aaa> 24eee->\	.	.	.	.
=68	=68	=68	=68	=68
8ryy	.	24eeenLL 24ccc 24gg/	.	.
.	.	24eee 24ccc 24gg/	.	.
.	.	24eeeJJ 24ccc 24gg/	.	.
24cccc>LL 24ggg> 24eee>\	.	8ryy	.	.
24cccc> 24ggg> 24eee>\	.	.	.	.
24cccc>JJ 24ggg> 24eee>\	.	.	.	.
8ryy	.	24gggLL 24eee 24ccc/	.	.
.	.	24ggg 24eee 24ccc/	.	.
.	.	24gggJJ 24eee 24ccc/	.	.
24eee>LL 24ccc> 24gg>\	.	8ryy	.	.
24eee> 24ccc> 24gg>\	.	.	.	.
24eee>JJ 24ccc> 24gg>\	.	.	.	.
8ryy	.	24cccLL 24gg 24ee/	.	.
.	.	24ccc 24gg 24ee/	.	.
.	.	24cccJJ 24gg 24ee/	.	.
24gg>LL 24ee> 24cc>\	.	8ryy	.	.
24gg> 24ee> 24cc>\	.	.	.	.
24gg>JJ 24ee> 24cc>\	.	.	.	.
*X8va	*	*X8va	*	*
=69	=69	=69	=69	=69
8ryy	.	24eeLL 24cc 24g/	.	.
.	.	24ee 24cc 24g/	.	.
.	.	24eeJJ 24cc 24g/	.	.
24cc>LL 24g> 24e>\	.	8ryy	.	.
24cc> 24g> 24e>\	.	.	.	.
24cc>JJ 24g> 24e>\	.	.	.	.
8ryy	.	24gLL 24e 24c/	.	.
.	.	24g 24e 24c/	.	.
.	.	24gJJ 24e 24c/	.	.
*clefF4	*	*clefF4	*	*
24eLL 24c 24G\	.	8ryy	.	.
24e 24c 24G\	.	.	.	.
24eJJ 24c 24G\	.	.	.	.
8ryy	.	24c<LL 24G< 24E</	.	.
.	.	24c< 24G< 24E</	.	.
.	.	24c<JJ 24G< 24E</	.	.
24GLL 24E 24C\	.	8ryy	.	.
24G 24E 24C\	.	.	.	.
24GJJ 24E 24C\	.	.	.	.
!!LO:LB:g=original
=70	=70	=70	=70	=70
8ryy	.	24E<LL 24C< 24GG</	.	.
.	.	24E< 24C< 24GG</	.	.
.	.	24E<JJ 24C< 24GG</	.	.
24cLL 24G 24E\	.	8ryy	.	.
24c 24G 24E\	.	.	.	.
24cJJ 24G 24E\	.	.	.	.
8ryy	.	24c<LL 24F#X< 24D#X</	.	.
.	.	24c< 24F#< 24D#</	.	.
.	.	24c<JJ 24F#< 24D#</	.	.
24cLL 24G 24E\	.	8ryy	.	.
24c 24G 24E\	.	.	.	.
24cJJ 24G 24E\	.	.	.	.
8ryy	.	24c<LL 24A< 24Fn</	.	.
.	.	24c< 24A< 24F</	.	.
.	.	24c<JJ 24A< 24F</	.	.
24cLL 24G 24E\	.	8ryy	.	.
24c 24G 24E\	.	.	.	.
24cJJ 24G 24E\	.	.	.	.
=71	=71	=71	=71	=71
8ryy	.	24F<LL 24D< 24GG</	.	.
.	.	24F< 24D< 24GG</	.	.
.	.	24F<JJ 24D< 24GG</	.	.
24BLL 24F 24D\	.	8ryy	.	.
24B 24F 24D\	.	.	.	.
24BJJ 24F 24D\	.	.	.	.
8ryy	.	24B<LL 24G< 24E</	.	.
.	.	24B< 24G< 24E</	.	.
.	.	24B<JJ 24G< 24E</	.	.
24BLL 24A-X 24F\	.	8ryy	.	.
24B 24A- 24F\	.	.	.	.
24BJJ 24A- 24F\	.	.	.	.
8ryy	.	24B<LL 24G< 24E</	.	.
.	.	24B< 24G< 24E</	.	.
.	.	24B<JJ 24G< 24E</	.	.
24BLL 24F 24D\	.	8ryy	.	.
24B 24F 24D\	.	.	.	.
24BJJ 24F 24D\	.	.	.	.
=72	=72	=72	=72	=72
*	*	*	*above	*
!	!	!	!	!LO:DY:b=2:rj
8ryy	.	24GG<LL 24CC</	2 5	ff
.	.	24GG< 24CC</	.	.
.	.	24GG<JJ 24CC</	.	.
24ELL 24GG\	2	8ryy	.	.
24E 24GG\	.	.	.	.
24EJJ 24GG\	.	.	.	.
*	*	*	*below	*
8ryy	.	24c<LL 24E</	2	.
.	.	24c< 24E</	.	.
.	.	24c<JJ 24E</	.	.
24BLL 24F\	.	8ryy	.	.
24B 24F\	.	.	.	.
24BJJ 24F\	.	.	.	.
4ryy	.	24F<LL 24BB</	.	.
.	.	24F< 24BB</	.	.
.	.	24F<JJ 24BB</	.	.
.	.	24BB<LL 24AA-X</	.	.
.	.	24BB< 24AA-</	.	.
.	.	24BB<JJ 24AA-</	.	.
=73	=73	=73	=73	=73
8ryy	.	24GG<LL 24CC</	.	.
.	.	24GG< 24CC</	.	.
.	.	24GG<JJ 24CC</	.	.
24ELL 24GG\	.	8ryy	.	.
24E 24GG\	.	.	.	.
24EJJ 24GG\	.	.	.	.
8ryy	.	24c<LL 24E</	.	.
.	.	24c< 24E</	.	.
.	.	24c<JJ 24E</	.	.
24BLL 24F\	.	8ryy	.	.
24B 24F\	.	.	.	.
24BJJ 24F\	.	.	.	.
8ryy	.	24F<LL 24BB</	.	.
.	.	24F< 24BB</	.	.
.	.	24F<JJ 24BB</	.	.
24BBLL 24AA-X\	.	8ryy	.	.
24BB 24AA-\	.	.	.	.
24BBJJ 24AA-\	.	.	.	.
=74	=74	=74	=74	=74
8ryy	.	24GG<LL 24CC</	.	.
.	.	24GG< 24CC</	.	.
.	.	24GG<JJ 24CC</	.	.
24cLL 24G 24E\	.	8ryy	.	.
24c 24G 24E\	.	.	.	.
24cJJ 24G 24E\	.	.	.	.
8ryy	.	24c<LL 24F#X< 24D#X</	.	.
.	.	24c< 24F#< 24D#</	.	.
.	.	24c<JJ 24F#< 24D#</	.	.
24cLL 24G 24E\	.	8ryy	.	.
24c 24G 24E\	.	.	.	.
24cJJ 24G 24E\	.	.	.	.
8ryy	.	24c<LL 24A< 24Fn</	.	.
.	.	24c< 24A< 24F</	.	.
.	.	24c<JJ 24A< 24F</	.	.
24cLL 24G 24E\	.	8ryy	.	.
24c 24G 24E\	.	.	.	.
24cJJ 24G 24E\	.	.	.	.
!!LO:LB:g=original
=75	=75	=75	=75	=75
8ryy	.	24D<LL 24GG</	.	.
.	.	24D< 24GG</	.	.
.	.	24D<JJ 24GG</	.	.
24BLL 24F 24D\	.	8ryy	.	.
24B 24F 24D\	.	.	.	.
24BJJ 24F 24D\	.	.	.	.
8ryy	.	24B<LL 24G< 24E</	.	.
.	.	24B< 24G< 24E</	.	.
.	.	24B<JJ 24G< 24E</	.	.
24BLL 24A-X 24F\	.	8ryy	.	.
24B 24A- 24F\	.	.	.	.
24BJJ 24A- 24F\	.	.	.	.
8ryy	.	24B<LL 24G< 24E</	.	.
.	.	24B< 24G< 24E</	.	.
.	.	24B<JJ 24G< 24E</	.	.
24BLL 24F 24D\	.	8ryy	.	.
24B 24F 24D\	.	.	.	.
24BJJ 24F 24D\	.	.	.	.
=76	=76	=76	=76	=76
8ryy	.	24GG<LL 24CC</	2 5	.
.	.	24GG< 24CC</	.	.
.	.	24GG<JJ 24CC</	.	.
24ELL 24GG\	.	8ryy	.	.
24E 24GG\	.	.	.	.
24EJJ 24GG\	.	.	.	.
8ryy	.	24c<LL 24E</	.	.
.	.	24c< 24E</	.	.
.	.	24c<JJ 24E</	.	.
24BLL 24F\	.	8ryy	.	.
24B 24F\	.	.	.	.
24BJJ 24F\	.	.	.	.
8ryy	.	24F<LL 24BB</	.	.
.	.	24F< 24BB</	.	.
.	.	24F<JJ 24BB</	.	.
24BBLL 24AA-X\	.	8ryy	.	.
24BB 24AA-\	.	.	.	.
24BBJJ 24AA-\	.	.	.	.
=77	=77	=77	=77	=77
8ryy	.	24GG<LL 24CC</	.	.
.	.	24GG< 24CC</	.	.
.	.	24GG<JJ 24CC</	.	.
24ELL 24GG\	.	8ryy	.	.
24E 24GG\	.	.	.	.
24EJJ 24GG\	.	.	.	.
8ryy	.	24c<LL 24C</	.	.
.	.	24c< 24C</	.	.
.	.	24c<JJ 24C</	.	.
24BLL 24F\	.	8ryy	.	.
24B 24F\	.	.	.	.
24BJJ 24F\	.	.	.	.
8ryy	.	24F<LL 24BB</	.	.
.	.	24F< 24BB</	.	.
.	.	24F<JJ 24BB</	.	.
24BBLL 24AA-X\	.	8ryy	.	.
24BB 24AA-\	.	.	.	.
24BBJJ 24AA-\	.	.	.	.
=78	=78	=78	=78	=78
8ryy	.	24GG<LL 24CC</	.	.
.	.	24GG< 24CC</	.	.
.	.	24GG<JJ 24CC</	.	.
24cLL 24G 24E\	.	8ryy	.	.
24c 24G 24E\	.	.	.	.
24cJJ 24G 24E\	.	.	.	.
8ryy	.	24c<LL 24F#X< 24D#X</	.	.
.	.	24c< 24F#< 24D#</	.	.
.	.	24c<JJ 24F#< 24D#</	.	.
24cLL 24G 24E\	.	8ryy	.	.
24c 24G 24E\	.	.	.	.
24cJJ 24G 24E\	.	.	.	.
8ryy	.	24c<LL 24A< 24Fn</	.	.
.	.	24c< 24A< 24F</	.	.
.	.	24c<JJ 24A< 24F</	.	.
24cLL 24G 24E\	.	8ryy	.	.
24c 24G 24E\	.	.	.	.
24cJJ 24G 24E\	.	.	.	.
=79	=79	=79	=79	=79
8ryy	.	24D<LL 24GG</	.	.
.	.	24D< 24GG</	.	.
.	.	24D<JJ 24GG</	.	.
24BLL 24F 24D\	.	8ryy	.	.
24B 24F 24D\	.	.	.	.
24BJJ 24F 24D\	.	.	.	.
8ryy	.	24B<LL 24G< 24E</	.	.
.	.	24B< 24G< 24E</	.	.
.	.	24B<JJ 24G< 24E</	.	.
24BLL 24A-X 24F\	.	8ryy	.	.
24B 24A- 24F\	.	.	.	.
24BJJ 24A- 24F\	.	.	.	.
8ryy	.	24B<LL 24G< 24E</	.	.
.	.	24B< 24G< 24E</	.	.
.	.	24B<JJ 24G< 24E</	.	.
24BLL 24F 24D\	.	8ryy	.	.
24B 24F 24D\	.	.	.	.
24BJJ 24F 24D\	.	.	.	.
!!LO:LB:g=original
=80	=80	=80	=80	=80
8ryy	.	24GG<LL 24CC</	.	.
.	.	24GG< 24CC</	.	.
.	.	24GG<JJ 24CC</	.	.
24ELL 24GG\	.	8ryy	.	.
24E 24GG\	.	.	.	.
24EJJ 24GG\	.	.	.	.
8ryy	.	24c<LL 24C</	.	.
.	.	24c< 24C</	.	.
.	.	24c<JJ 24C</	.	.
24gLL 24c\	.	8ryy	.	.
24g 24c\	.	.	.	.
24gJJ 24c\	.	.	.	.
8ryy	.	24c<LL 24E</	.	.
.	.	24c< 24E</	.	.
.	.	24c<JJ 24E</	.	.
24gLL 24c\	.	8ryy	.	.
24g 24c\	.	.	.	.
24gJJ 24c\	.	.	.	.
=81	=81	=81	=81	=81
*clefG2	*	*clefG2	*	*
8ryy	.	24ccLL 24g 24e/	.	.
.	.	24cc 24g 24e/	.	.
.	.	24ccJJ 24g 24e/	.	.
!LO:TX:a:i:t=mano sinistra	!	!	!	!
24ee>LL 24cc> 24g>\	.	8ryy	.	.
24ee> 24cc> 24g>\	.	.	.	.
24ee>JJ 24cc> 24g>\	.	.	.	.
8ryy	.	24ggLL 24ee 24cc/	.	.
.	.	24gg 24ee 24cc/	.	.
.	.	24ggJJ 24ee 24cc/	.	.
24ccc>LL 24gg> 24ee>\	.	8ryy	.	.
24ccc> 24gg> 24ee>\	.	.	.	.
24ccc>JJ 24gg> 24ee>\	.	.	.	.
8ryy	.	24eeeLL 24ccc 24gg/	.	.
.	.	24eee 24ccc 24gg/	.	.
.	.	24eeeJJ 24ccc 24gg/	.	.
*8va	*	*8va	*	*
24ggg>LL 24eee> 24ccc>\	.	8ryy	.	.
24ggg> 24eee> 24ccc>\	.	.	.	.
24ggg>JJ 24eee> 24ccc>\	.	.	.	.
*X8va	*	*	*	*
*clefF4	*	*	*	*
=82	=82	=82	=82	=82
4r	.	8cccc 8ggg 8eee/	.	.
*	*	*X8va	*	*
.	.	8r	.	.
8r	.	8r	.	.
8B 8F 8GG\	.	8gg 8b 8f\	.	.
8r	.	8r	.	.
8r	.	8r	.	.
=83	=83	=83	=83	=83
16qqE 16qqGG 16qqCC\	.	16qqcc 16qqe 16qqc\	.	.
*2\right	*	*2\right	*	*
2.E 2.GG 2.CC\	.	2.cc 2.e 2.c\	.	.
==	==	==	==	==
*-	*-	*-	*-	*-
!!!system-decoration: (s1,s2)
!!!RDF**kern: > = above
!!!RDF**kern: < = below
!!!ENC: Marta Lawrence
!!!END: 2021-05-28
!!!ENC: Tomasz Grochalski
!!!END: 2021-05-10
